X:1
T:Revive Us
T:Revive Us
T:Gilbert Dobbs
T:Gilbert Dobbs, 1904
T:Public Domain Courtesy of the Cyber Hymnal™
T:Public Domain Courtesy of the Cyber Hymnal™
C:Gilbert Dobbs
Z:Public Domain
Z:Courtesy of the Cyber Hymnal™
%%score ( 1 2 ) ( 3 4 )
L:1/8
Q:1/4=108
M:4/4
K:G
V:1 treble 
V:2 treble 
V:3 bass 
V:4 bass 
V:1
 d4 B2 G2 | E6 E2 | (EF)GA B2 [GB]2 | [FA]2 [EG]2 [Gc]2 [Ge]2 | [Gd]6 [Gd]2 | %5
w: 1.~O sover- eign|Lord, en-|throned * in grace, Put forth|Thy migh- ty hand;|Let all|
w: 2.~Re- vive Thy|Church, al-|migh- * ty God, Oh, purge|us from all sin;|Hon- or|
w: 3.~Let i- dols|from their|thrones * be hurled, Up- lift|the pro- phet’s rod;|Have mer-|
w: 4.~Let all now|mag- ni-|fy * Thy Word, And seek|the Spir- it’s breath;|’Tis not|
w: 5.~Lord, give us|grace from|this * blest hour To watch|and work and pray;|Re- vive|
 [Gd]3 [GB] [FA][DG][DF][CE] | D6 [B,D]2 | [EG]3 [EA] [DG]2 [DF]2 | [DG]6 z ||[M:2/4]"^Refrain" D | %10
w: Thy peo- ple seek Thy face,|And no-|bly take their stand.|||
w: the Sav- ior’s pre- cious blood,|Now let|Thy work be- gin.|||
w: cy on a wick- ed world,|Re- vive|Thy Church, O God.|Re-|vive|
w: by might nor pow- er, Lord,|That souls|are saved from death.|||
w: Thy Church, Lord, give us power|To win|lost souls to- day.|||
"^Spirited" G2 D>G | B2 G>[GB] | [Gd]2 [Ge]>[Gd] | [GB]3 [GB] | [Gd]2 [Gc]>[GB] | [FA]3 [FA] | %16
w: ||||||
w: ||||||
w: us, re- vive|us, O Spir-|it of power,|May this|be the day,|and this|
w: ||||||
w: ||||||
 [Fc]2 [GB]>[FA] | [DG]3 D | G2 D>G | B2 G>[GB] | [Gd]2 [Ge]>[Gd] | [GB]3 [GB] | [Bd]2 [Ac]>[GB] | %23
w: |||||||
w: |||||||
w: be the hour;|O help|us, O bless|us and show|us Thy face,|And give|us the show-|
w: |||||||
w: |||||||
 [FA]/ [FA]3 [FA]/ | [Fc]/ [GB]3 [FA]/ | !fermata!G3 |] %26
w: |||
w: |||
w: ers, rich show-|ers of grace.||
w: |||
w: |||
V:2
 d4 B2 G2 | E6 E2 | EF (GA) B2 x2 | x8 | x8 | x8 | D6 x2 | x8 | x7 ||[M:2/4] D | !>!G2 D>G | %11
 !>!B2 G3/2 x/ | x4 | x4 | x4 | x4 | x4 | x3 D | G2 D>G | B2 G3/2 x/ | x4 | x4 | x4 | x4 | x4 | %25
 G3 |] %26
V:3
 D4 B,2 G,2 | E,6 E,2 | (E,F,) (G,A,) B,2 [G,D]2 | [D,C]2 [E,B,]2 [C,E]2 [C,C]2 | [G,B,]6 [G,B,]2 | %5
 [G,B,]3 [G,,D] [A,,D][B,,B,][D,A,][F,A,] | [G,B,]6 [C,G,]2 | [E,B,]3 [A,,C] [D,B,]2 [D,C]2 | %8
 [G,,G,B,]6 z ||[M:2/4] D, | G,2 D,>G, | B,2 G,>[G,D] | [G,B,]2 [G,C]>[G,B,] | [G,D]3 [G,D] | %14
 [G,B,]2 [G,E]>[G,D] | [D,D]3 [D,C] | [D,A,]2 [D,D]>[D,C] | [G,B,]3 D, | G,2 D,>G, | %19
 B,2 G,>[G,B,] | [G,B,]2 [G,C]>[G,B,] | [G,D]3 [G,D] | [D,D]2 [D,D]>[D,D] | [D,D]/ [D,D]3 [D,C]/ | %24
 [D,A,]/ [D,D]3 [D,C]/ | !fermata![G,B,]3 |] %26
V:4
 D4 B,2 G,2 | E,6 E,2 | E,F,G,A, B,2 x2 | x8 | x8 | x8 | x8 | x8 | x7 ||[M:2/4] D, | G,2 D,>G, | %11
 B,2 G,3/2 x/ | x4 | x4 | x4 | x4 | x4 | x3 D, | G,2 D,>G, | B,2 G,3/2 x/ | x4 | x4 | x4 | x4 | %24
 x4 | x3 |] %26

